static/img/in-field/accordion-line-below-default.svg

<svg width="178" height="56" viewBox="0 0 178 56" fill="none" xmlns="http://www.w3.org/2000/svg">
<path d="M30.9932 37H29.167V22.917H24.1934V21.2949H35.9668V22.917H30.9932V37ZM40.1055 37H38.3223V25.2266H40.1055V37ZM38.1719 22.0361C38.1719 21.6279 38.2721 21.3307 38.4727 21.1445C38.6732 20.9512 38.9238 20.8545 39.2246 20.8545C39.5111 20.8545 39.7581 20.9512 39.9658 21.1445C40.1735 21.3379 40.2773 21.6351 40.2773 22.0361C40.2773 22.4372 40.1735 22.738 39.9658 22.9385C39.7581 23.1318 39.5111 23.2285 39.2246 23.2285C38.9238 23.2285 38.6732 23.1318 38.4727 22.9385C38.2721 22.738 38.1719 22.4372 38.1719 22.0361ZM47.9395 35.7432C48.2546 35.7432 48.5589 35.7217 48.8525 35.6787C49.1462 35.6286 49.3789 35.5785 49.5508 35.5283V36.8926C49.3574 36.9857 49.071 37.0609 48.6914 37.1182C48.319 37.1826 47.9824 37.2148 47.6816 37.2148C45.4043 37.2148 44.2656 36.0153 44.2656 33.6162V26.6123H42.5791V25.7529L44.2656 25.0117L45.0176 22.498H46.0488V25.2266H49.4648V26.6123H46.0488V33.541C46.0488 34.25 46.2171 34.7943 46.5537 35.1738C46.8903 35.5534 47.3522 35.7432 47.9395 35.7432ZM53.9473 37H52.1641V20.2852H53.9473V37ZM62.9521 37.2148C61.2119 37.2148 59.8369 36.6849 58.8271 35.625C57.8245 34.5651 57.3232 33.0934 57.3232 31.21C57.3232 29.3122 57.7887 27.8047 58.7197 26.6875C59.6579 25.5703 60.9147 25.0117 62.4902 25.0117C63.9655 25.0117 65.1328 25.4987 65.9922 26.4727C66.8516 27.4395 67.2812 28.7178 67.2812 30.3076V31.4355H59.1709C59.2067 32.8177 59.554 33.8669 60.2129 34.583C60.8789 35.2992 61.8135 35.6572 63.0166 35.6572C64.2842 35.6572 65.5374 35.3923 66.7764 34.8623V36.4521C66.1462 36.7243 65.5482 36.9176 64.9824 37.0322C64.4238 37.154 63.7471 37.2148 62.9521 37.2148ZM62.4688 26.5049C61.5234 26.5049 60.7679 26.8128 60.2021 27.4287C59.6436 28.0446 59.3141 28.8968 59.2139 29.9854H65.3691C65.3691 28.861 65.1185 28.0016 64.6172 27.4072C64.1159 26.8057 63.3997 26.5049 62.4688 26.5049Z" fill="#252A2E"/>
<path d="M155.45 24.55L152.95 22.05L146 28.95L139.05 22.05L136.55 24.55L146 33.95L155.45 24.55Z" fill="#252A2E"/>
<path d="M178 55H0V57H178V55Z" fill="#000" mask="url(#path-1-inside-1_7196_83735)"/>
</svg>

<svg width="178" height="56" fill="none" xmlns="http://www.w3.org/2000/svg"><path d="M30.993 37h-1.826V22.917h-4.974v-1.622h11.774v1.622h-4.974V37zm9.113 0h-1.784V25.227h1.783V37zm-1.934-14.964c0-.408.1-.705.3-.892.201-.193.452-.29.753-.29.286 0 .533.097.74.29.208.194.312.491.312.892s-.104.702-.311.902a1.05 1.05 0 01-.741.29c-.301 0-.552-.096-.752-.29-.2-.2-.301-.5-.301-.902zm9.768 13.707c.315 0 .619-.021.913-.064.293-.05.526-.1.698-.15v1.364c-.194.093-.48.168-.86.225a5.979 5.979 0 01-1.01.097c-2.277 0-3.415-1.2-3.415-3.599v-7.004h-1.687v-.86l1.687-.74.752-2.514h1.03v2.729h3.417v1.385h-3.416v6.929c0 .709.168 1.253.505 1.633.336.38.798.57 1.386.57zM53.947 37h-1.783V20.285h1.783V37zm9.005.215c-1.74 0-3.115-.53-4.125-1.59-1.002-1.06-1.504-2.532-1.504-4.415 0-1.898.466-3.405 1.397-4.523.938-1.117 2.195-1.675 3.77-1.675 1.475 0 2.643.487 3.502 1.46.86.967 1.29 2.246 1.29 3.836v1.128H59.17c.036 1.382.383 2.43 1.042 3.147.666.716 1.6 1.074 2.804 1.074 1.267 0 2.52-.265 3.76-.795v1.59a9.113 9.113 0 01-1.795.58c-.558.122-1.235.183-2.03.183zm-.483-10.71c-.946 0-1.701.308-2.267.924-.558.616-.888 1.468-.988 2.556h6.155c0-1.124-.25-1.983-.752-2.578-.501-.601-1.217-.902-2.148-.902zM155.45 24.55l-2.5-2.5-6.95 6.9-6.95-6.9-2.5 2.5 9.45 9.4 9.45-9.4z" fill="#252A2E"/><path d="M178 55H0v2h178v-2z" fill="#000" mask="url(#prefix__path-1-inside-1_7196_83735)"/></svg>
